PortableApps/LibreOfficePortable/App/libreoffice/help/media/icon-themes/cmd/sc_insertlinebreak.svg

<svg viewBox="0 0 16 16" xmlns="http://www.w3.org/2000/svg"><path d="m2 1h12v14h-12z" fill="#fff"/><path d="m6.5 6c-.276142 0-.5.223858-.5.5s.223858.5.5.5h1c1.380712 0 2.5 1.119288 2.5 2.5h.0059v.423828 1.359375l-2.152343-2.144531a.50005.50005 0 0 0 -.359375-.152344.50005.50005 0 0 0 -.347657.859375l3.00586 2.994141a.50005.50005 0 0 0 .707031-.002l2.994141-2.992188a.50005.50005 0 1 0 -.707032-.707031l-2.140625 2.138672v-1.353516-.5c-.005941-2.1546159-1.88341-3.373751-3.5059-3.423781z" fill="#4d82b8"/><path d="m2 0c-.554 0-1 .446-1 1v14c0 .554.446 1 1 1h12c.554 0 1-.446 1-1v-14c0-.554-.446-1-1-1zm0 1h12v14h-12zm1.4394531 2c-.2438019 0-.4394531.1956512-.4394531.4394531v.1210938c0 .2438019.1956512.4394531.4394531.4394531h9.1210939c.243802 0 .439453-.1956512.439453-.4394531v-.1210938c0-.2438019-.195651-.4394531-.439453-.4394531zm.0253907 3c-.2570812 0-.4648438.2077626-.4648438.4648438v.0703124c0 .2570812.2077626.4648438.4648438.4648438h1.0703124c.2570812 0 .4648438-.2077626.4648438-.4648438v-.0703124c0-.2570812-.2077626-.4648438-.4648438-.4648438zm0 3c-.2570812 0-.4648438.2077626-.4648438.4648438v.0703124c0 .2570812.2077626.4648438.4648438.4648438h2.0703124c.2570812 0 .4648438-.2077626.4648438-.4648438v-.0703124c0-.2570812-.2077626-.4648438-.4648438-.4648438zm-.0253907 4c-.2438019 0-.4394531.195651-.4394531.439453v.121094c0 .243802.1956512.439453.4394531.439453h9.1210939c.243802 0 .439453-.195651.439453-.439453v-.121094c0-.243802-.195651-.439453-.439453-.439453z" fill="#808080"/></svg>

<svg viewBox="0 0 16 16" xmlns="http://www.w3.org/2000/svg">
 <path
   style="fill:#ffffff"
   d="M 2,1 H 14 V 15 H 2 Z"
   />
<path
   style="fill:#4d82b8"
   d="M 6.5,6 C 6.223858,6 6,6.223858 6,6.5 6,6.776142 6.223858,7 6.5,7 h 1 C 8.880712,7 10,8.119288 10,9.5 h 0.0059 v 0.423828 1.359375 L 7.853557,9.138672 A 0.50005,0.50005 0 0 0 7.494182,8.986328 0.50005,0.50005 0 0 0 7.146525,9.845703 l 3.00586,2.994141 a 0.50005,0.50005 0 0 0 0.707031,-0.002 L 13.853557,9.845656 A 0.50005,0.50005 0 1 0 13.146525,9.138625 L 11.0059,11.277297 v -1.353516 -0.5 C 10.999959,7.2691651 9.12249,6.05003 7.5,6 Z"
   />
<path
   style="fill:#808080"
   d="M 2 0 C 1.446 0 1 0.446 1 1 L 1 15 C 1 15.554 1.446 16 2 16 L 14 16 C 14.554 16 15 15.554 15 15 L 15 1 C 15 0.446 14.554 0 14 0 L 2 0 z M 2 1 L 14 1 L 14 15 L 2 15 L 2 1 z M 3.4394531 3 C 3.1956512 3 3 3.1956512 3 3.4394531 L 3 3.5605469 C 3 3.8043488 3.1956512 4 3.4394531 4 L 12.560547 4 C 12.804349 4 13 3.8043488 13 3.5605469 L 13 3.4394531 C 13 3.1956512 12.804349 3 12.560547 3 L 3.4394531 3 z M 3.4648438 6 C 3.2077626 6 3 6.2077626 3 6.4648438 L 3 6.5351562 C 3 6.7922374 3.2077626 7 3.4648438 7 L 4.5351562 7 C 4.7922374 7 5 6.7922374 5 6.5351562 L 5 6.4648438 C 5 6.2077626 4.7922374 6 4.5351562 6 L 3.4648438 6 z M 3.4648438 9 C 3.2077626 9 3 9.2077626 3 9.4648438 L 3 9.5351562 C 3 9.7922374 3.2077626 10 3.4648438 10 L 5.5351562 10 C 5.7922374 10 6 9.7922374 6 9.5351562 L 6 9.4648438 C 6 9.2077626 5.7922374 9 5.5351562 9 L 3.4648438 9 z M 3.4394531 13 C 3.1956512 13 3 13.195651 3 13.439453 L 3 13.560547 C 3 13.804349 3.1956512 14 3.4394531 14 L 12.560547 14 C 12.804349 14 13 13.804349 13 13.560547 L 13 13.439453 C 13 13.195651 12.804349 13 12.560547 13 L 3.4394531 13 z "
   />
</svg>
